imagestudio/img/cover/retouch.svg

<svg width="35" height="34" viewBox="0 0 35 34" fill="none" xmlns="http://www.w3.org/2000/svg">
<g clip-path="url(#clip0)">
<path d="M33.5039 27.957H30.4492V5.04688C30.4492 4.49677 30.0032 4.05078 29.4531 4.05078H6.54297V0.996094C6.54297 0.445984 6.09698 0 5.54688 0C4.99677 0 4.55078 0.445984 4.55078 0.996094V4.05078H1.49609C0.945984 4.05078 0.5 4.49677 0.5 5.04688C0.5 5.59698 0.945984 6.04297 1.49609 6.04297H4.55078V28.9531C4.55078 29.5032 4.99677 29.9492 5.54688 29.9492H28.457V33.0039C28.457 33.554 28.903 34 29.4531 34C30.0032 34 30.4492 33.554 30.4492 33.0039V29.9492H33.5039C34.054 29.9492 34.5 29.5032 34.5 28.9531C34.5 28.403 34.054 27.957 33.5039 27.957ZM28.457 6.04297V24.5562L22.1887 18.2878C21.7997 17.8988 21.169 17.8988 20.78 18.2878L18.4961 20.5718L14.2199 16.2956C13.831 15.9066 13.2003 15.9066 12.8113 16.2956L6.54297 22.564V6.04297H28.457ZM6.54297 27.957V25.3813L13.5156 18.4087L20.7801 25.6731C21.169 26.0621 21.7997 26.0621 22.1887 25.6731C22.5778 25.284 22.5778 24.6534 22.1887 24.2644L19.9048 21.9805L21.4844 20.4009L28.457 27.3735V27.957H6.54297Z" fill="#CA9E55"/>
<path d="M22.4805 16.0039C24.6775 16.0039 26.4648 14.2165 26.4648 12.0195C26.4648 9.82255 24.6775 8.03516 22.4805 8.03516C20.2835 8.03516 18.4961 9.82255 18.4961 12.0195C18.4961 14.2165 20.2835 16.0039 22.4805 16.0039ZM22.4805 10.0273C23.579 10.0273 24.4727 10.921 24.4727 12.0195C24.4727 13.118 23.579 14.0117 22.4805 14.0117C21.382 14.0117 20.4883 13.118 20.4883 12.0195C20.4883 10.921 21.382 10.0273 22.4805 10.0273Z" fill="#CA9E55"/>
</g>
<defs>
<clipPath id="clip0">
<rect width="34" height="34" fill="white" transform="translate(0.5)"/>
</clipPath>
</defs>
</svg>

<svg width="35" height="34" fill="none" xmlns="http://www.w3.org/2000/svg"><g clip-path="url(#clip0)" fill="#CA9E55"><path d="M33.504 27.957h-3.055V5.047a.996.996 0 00-.996-.996H6.543V.996a.996.996 0 00-1.992 0v3.055H1.496a.996.996 0 000 1.992h3.055v22.91c0 .55.446.996.996.996h22.91v3.055a.996.996 0 001.992 0v-3.055h3.055a.996.996 0 000-1.992zM28.457 6.043v18.513l-6.268-6.268a.996.996 0 00-1.409 0l-2.284 2.284-4.276-4.276a.996.996 0 00-1.409 0l-6.268 6.268V6.043h21.914zM6.543 27.957v-2.576l6.973-6.972 7.264 7.264a.996.996 0 101.409-1.409l-2.284-2.284 1.58-1.58 6.972 6.974v.583H6.543z"/><path d="M22.48 16.004a3.989 3.989 0 003.985-3.985 3.989 3.989 0 00-3.985-3.984 3.989 3.989 0 00-3.984 3.985 3.989 3.989 0 003.985 3.984zm0-5.977c1.099 0 1.993.894 1.993 1.993a1.994 1.994 0 01-1.992 1.992 1.994 1.994 0 01-1.993-1.992c0-1.099.894-1.993 1.992-1.993z"/></g><defs><clipPath id="clip0"><path fill="#fff" transform="translate(.5)" d="M0 0h34v34H0z"/></clipPath></defs></svg>
